groups/amino_sidechains/triptophan.svg

<?xml version='1.0' encoding='iso-8859-1'?>
<svg version='1.1' baseProfile='full'
              xmlns='http://www.w3.org/2000/svg'
                      xmlns:rdkit='http://www.rdkit.org/xml'
                      xmlns:xlink='http://www.w3.org/1999/xlink'
                  xml:space='preserve'
width='256px' height='256px' viewBox='0 0 256 256'>
<!-- END OF HEADER -->
<rect style='opacity:1.0;fill:#FFFFFF;stroke:none' width='256.0' height='256.0' x='0.0' y='0.0'> </rect>
<path class='bond-0 atom-0 atom-1' d='M 163.2,30.0 L 197.6,68.2' style='fill:none;fill-rule:evenodd;stroke:#000000;stroke-width:2.0px;stroke-linecap:butt;stroke-linejoin:miter;stroke-opacity:1' />
<path class='bond-1 atom-1 atom-2' d='M 197.6,68.2 L 181.7,117.1' style='fill:none;fill-rule:evenodd;stroke:#000000;stroke-width:2.0px;stroke-linecap:butt;stroke-linejoin:miter;stroke-opacity:1' />
<path class='bond-2 atom-2 atom-3' d='M 181.7,117.1 L 211.9,158.7' style='fill:none;fill-rule:evenodd;stroke:#000000;stroke-width:2.0px;stroke-linecap:butt;stroke-linejoin:miter;stroke-opacity:1' />
<path class='bond-2 atom-2 atom-3' d='M 178.7,126.1 L 202.3,158.7' style='fill:none;fill-rule:evenodd;stroke:#000000;stroke-width:2.0px;stroke-linecap:butt;stroke-linejoin:miter;stroke-opacity:1' />
<path class='bond-3 atom-3 atom-4' d='M 211.9,158.7 L 189.6,189.3' style='fill:none;fill-rule:evenodd;stroke:#000000;stroke-width:2.0px;stroke-linecap:butt;stroke-linejoin:miter;stroke-opacity:1' />
<path class='bond-4 atom-2 atom-5' d='M 181.7,117.1 L 132.8,132.9' style='fill:none;fill-rule:evenodd;stroke:#000000;stroke-width:2.0px;stroke-linecap:butt;stroke-linejoin:miter;stroke-opacity:1' />
<path class='bond-5 atom-5 atom-6' d='M 132.8,132.9 L 132.8,184.3' style='fill:none;fill-rule:evenodd;stroke:#000000;stroke-width:2.0px;stroke-linecap:butt;stroke-linejoin:miter;stroke-opacity:1' />
<path class='bond-5 atom-5 atom-6' d='M 140.5,138.5 L 140.5,178.7' style='fill:none;fill-rule:evenodd;stroke:#000000;stroke-width:2.0px;stroke-linecap:butt;stroke-linejoin:miter;stroke-opacity:1' />
<path class='bond-6 atom-6 atom-7' d='M 132.8,184.3 L 88.2,210.0' style='fill:none;fill-rule:evenodd;stroke:#000000;stroke-width:2.0px;stroke-linecap:butt;stroke-linejoin:miter;stroke-opacity:1' />
<path class='bond-7 atom-7 atom-8' d='M 88.2,210.0 L 43.7,184.2' style='fill:none;fill-rule:evenodd;stroke:#000000;stroke-width:2.0px;stroke-linecap:butt;stroke-linejoin:miter;stroke-opacity:1' />
<path class='bond-7 atom-7 atom-8' d='M 88.2,201.1 L 51.4,179.8' style='fill:none;fill-rule:evenodd;stroke:#000000;stroke-width:2.0px;stroke-linecap:butt;stroke-linejoin:miter;stroke-opacity:1' />
<path class='bond-8 atom-8 atom-9' d='M 43.7,184.2 L 43.8,132.8' style='fill:none;fill-rule:evenodd;stroke:#000000;stroke-width:2.0px;stroke-linecap:butt;stroke-linejoin:miter;stroke-opacity:1' />
<path class='bond-9 atom-9 atom-10' d='M 43.8,132.8 L 88.3,107.2' style='fill:none;fill-rule:evenodd;stroke:#000000;stroke-width:2.0px;stroke-linecap:butt;stroke-linejoin:miter;stroke-opacity:1' />
<path class='bond-9 atom-9 atom-10' d='M 51.5,137.3 L 88.3,116.1' style='fill:none;fill-rule:evenodd;stroke:#000000;stroke-width:2.0px;stroke-linecap:butt;stroke-linejoin:miter;stroke-opacity:1' />
<path class='bond-10 atom-10 atom-5' d='M 88.3,107.2 L 132.8,132.9' style='fill:none;fill-rule:evenodd;stroke:#000000;stroke-width:2.0px;stroke-linecap:butt;stroke-linejoin:miter;stroke-opacity:1' />
<path class='bond-11 atom-6 atom-4' d='M 132.8,184.3 L 170.7,196.7' style='fill:none;fill-rule:evenodd;stroke:#000000;stroke-width:2.0px;stroke-linecap:butt;stroke-linejoin:miter;stroke-opacity:1' />
<path d='M 195.9,66.3 L 197.6,68.2 L 196.8,70.6' style='fill:none;stroke:#000000;stroke-width:2.0px;stroke-linecap:butt;stroke-linejoin:miter;stroke-miterlimit:10;stroke-opacity:1;' />
<path d='M 210.4,156.6 L 211.9,158.7 L 210.8,160.2' style='fill:none;stroke:#000000;stroke-width:2.0px;stroke-linecap:butt;stroke-linejoin:miter;stroke-miterlimit:10;stroke-opacity:1;' />
<path d='M 90.4,208.7 L 88.2,210.0 L 86.0,208.7' style='fill:none;stroke:#000000;stroke-width:2.0px;stroke-linecap:butt;stroke-linejoin:miter;stroke-miterlimit:10;stroke-opacity:1;' />
<path d='M 46.0,185.5 L 43.7,184.2 L 43.7,181.7' style='fill:none;stroke:#000000;stroke-width:2.0px;stroke-linecap:butt;stroke-linejoin:miter;stroke-miterlimit:10;stroke-opacity:1;' />
<path d='M 43.8,135.4 L 43.8,132.8 L 46.0,131.6' style='fill:none;stroke:#000000;stroke-width:2.0px;stroke-linecap:butt;stroke-linejoin:miter;stroke-miterlimit:10;stroke-opacity:1;' />
<path d='M 86.1,108.5 L 88.3,107.2 L 90.5,108.5' style='fill:none;stroke:#000000;stroke-width:2.0px;stroke-linecap:butt;stroke-linejoin:miter;stroke-miterlimit:10;stroke-opacity:1;' />
<path class='atom-1' d='M144.135,47.1666 C145.423,48.5999 147.334,46.8816 146.046,45.4483 C144.757,44.015 146.668,42.2967 147.957,43.73 C149.246,45.1633 151.157,43.4449 149.868,42.0116 C148.579,40.5783 150.49,38.86 151.779,40.2933 C153.068,41.7266 154.979,40.0083 153.69,38.575 C152.401,37.1417 154.312,35.4234 155.601,36.8566 C156.89,38.2899 158.801,36.5716 157.512,35.1383 C156.223,33.705 158.135,31.9867 159.423,33.42 C160.712,34.8533 162.623,33.1349 161.334,31.7016 C160.046,30.2684 161.957,28.55 163.245,29.9833 C164.534,31.4166 166.445,29.6983 165.157,28.265 C163.868,26.8317 165.779,25.1134 167.068,26.5467 C168.356,27.9799 170.267,26.2616 168.979,24.8283 C167.69,23.395 169.601,21.6767 170.89,23.11 C172.179,24.5433 174.09,22.8249 172.801,21.3917 C171.512,19.9584 173.423,18.24 174.712,19.6733 C176.001,21.1066 177.912,19.3883 176.623,17.955 C175.334,16.5217 177.245,14.8034 178.534,16.2367 C179.823,17.6699 181.734,15.9516 180.445,14.5183 C179.156,13.085 181.068,11.3667 182.356,12.8' style='fill:none;stroke:#7F7F7F;stroke-width:2.0px;stroke-linecap:butt;stroke-linejoin:miter;stroke-opacity:1' />
<text x='172.4' y='215.7' class='atom-4' style='font-size:30px;font-style:normal;font-weight:normal;fill-opacity:1;stroke:none;font-family:sans-serif;text-anchor:start;fill:#000000' >N</text>
<text x='172.4' y='242.8' class='atom-4' style='font-size:30px;font-style:normal;font-weight:normal;fill-opacity:1;stroke:none;font-family:sans-serif;text-anchor:start;fill:#000000' >H</text>
</svg>

<svg height="256" viewBox="0 0 256 256" width="256" xmlns="http://www.w3.org/2000/svg"><path d="m0 0h256v256h-256z" fill="#fff"/><g fill="none" stroke-width="2"><path d="m163.2 30 34.4 38.2" stroke="#000"/><path d="m197.6 68.2-15.9 48.9" stroke="#000"/><path d="m181.7 117.1 30.2 41.6" stroke="#000"/><path d="m178.7 126.1 23.6 32.6" stroke="#000"/><path d="m211.9 158.7-22.3 30.6" stroke="#000"/><path d="m181.7 117.1-48.9 15.8" stroke="#000"/><path d="m132.8 132.9v51.4" stroke="#000"/><path d="m140.5 138.5v40.2" stroke="#000"/><path d="m132.8 184.3-44.6 25.7" stroke="#000"/><path d="m88.2 210-44.5-25.8" stroke="#000"/><path d="m88.2 201.1-36.8-21.3" stroke="#000"/><path d="m43.7 184.2.1-51.4" stroke="#000"/><path d="m43.8 132.8 44.5-25.6" stroke="#000"/><path d="m51.5 137.3 36.8-21.2" stroke="#000"/><path d="m88.3 107.2 44.5 25.7" stroke="#000"/><path d="m132.8 184.3 37.9 12.4" stroke="#000"/><path d="m195.9 66.3 1.7 1.9-.8 2.4" stroke="#000" stroke-miterlimit="10"/><path d="m210.4 156.6 1.5 2.1-1.1 1.5" stroke="#000" stroke-miterlimit="10"/><path d="m90.4 208.7-2.2 1.3-2.2-1.3" stroke="#000" stroke-miterlimit="10"/><path d="m46 185.5-2.3-1.3v-2.5" stroke="#000" stroke-miterlimit="10"/><path d="m43.8 135.4v-2.6l2.2-1.2" stroke="#000" stroke-miterlimit="10"/><path d="m86.1 108.5 2.2-1.3 2.2 1.3" stroke="#000" stroke-miterlimit="10"/><path d="m144.135 47.167c1.288 1.433 3.199-.285 1.911-1.719-1.289-1.433.622-3.151 1.911-1.718s3.2-.285 1.911-1.718c-1.289-1.434.622-3.152 1.911-1.719 1.289 1.434 3.2-.285 1.911-1.718s.622-3.152 1.911-1.718c1.289 1.433 3.2-.285 1.911-1.719-1.289-1.433.623-3.151 1.911-1.718 1.289 1.433 3.2-.285 1.911-1.718-1.288-1.434.623-3.152 1.911-1.719 1.289 1.434 3.2-.285 1.912-1.718-1.289-1.433.622-3.152 1.911-1.718 1.288 1.433 3.199-.285 1.911-1.719-1.289-1.433.622-3.151 1.911-1.718s3.2-.285 1.911-1.718c-1.289-1.434.622-3.152 1.911-1.719 1.289 1.434 3.2-.285 1.911-1.718s.622-3.152 1.911-1.718c1.289 1.433 3.2-.285 1.911-1.719-1.289-1.433.623-3.151 1.911-1.718" stroke="#7f7f7f"/></g><text font-family="sans-serif" font-size="30" x="172.4" y="215.7">N</text><text font-family="sans-serif" font-size="30" x="172.4" y="242.8">H</text></svg>
